X:1449
T:Polska efter Ingels Jan Andersson (SvL Dalarna 1449)
R:Polska
S:Ingels Jan Andersson
O:St. Skedvi, Dalarna
N:Svenska Låtar Dalarna, 1449
B:Svenska Låtar Dalarna
Z:Till abc Jonas Brunskog
M:3/4
L:1/8
Q:1/4=132
K:Ddor
v(d^c) Ac de|(e/f/)(d/f/) e2 ^c2|ef de fa|(^g/e/)(g/b/) ae ^cA|
(d^c) Ac de|(e/f/)(d/f/) e2 ^c2|ef de fa|(^g/e/)g/b/ a2z2:|
|:e2 az/(a/ c')z/c'/|bz/b/ a2 [^ce]2|d>e f>f a>g|(e>f) d2 z2:|

